dist/assets/images/linking-7.svg

<?xml version="1.0" encoding="UTF-8"?>
<svg width="32px" height="21px" viewBox="0 0 32 21" version="1.1" xmlns="http://www.w3.org/2000/svg" xmlns:xlink="http://www.w3.org/1999/xlink">
    <!-- Generator: Sketch 41.2 (35397) - http://www.bohemiancoding.com/sketch -->
    <title>Page 1 Copy</title>
    <desc>Created with Sketch.</desc>
    <defs></defs>
    <g id="_Elements" stroke="none" stroke-width="1" fill="none" fill-rule="evenodd">
        <path d="M0,2.13140572 L32,2.13140572 L32,0 L0,0 L0,2.13140572 Z M0,11.1318248 L32,11.1318248 L32,9 L0,9 L0,11.1318248 Z M0,20.1315454 L32,20.1315454 L32,18 L0,18 L0,20.1315454 Z" id="Page-1-Copy" fill="#000000"></path>
    </g>
</svg>

<svg width="32" height="21" viewBox="0 0 32 21" xmlns="http://www.w3.org/2000/svg"><title>Page 1 Copy</title><path d="M0 2.131h32V0H0v2.131zm0 9h32V9H0v2.132zm0 9h32V18H0v2.132z" fill-rule="evenodd"/></svg>
